src/lib/packages/icons/src/assets/line/tv.svg

<svg xmlns="http://www.w3.org/2000/svg" width="24" height="24" fill="none"><path fill="currentColor" d="M18 3.25H6c-2.418 0-3.75 1.414-3.75 3.981v7.538c0 2.567 1.332 3.981 3.75 3.981h12c2.418 0 3.75-1.414 3.75-3.981V7.231c0-2.567-1.332-3.981-3.75-3.981Zm2.25 11.519c0 1.739-.673 2.481-2.25 2.481H6c-1.577 0-2.25-.742-2.25-2.481V7.231c0-1.739.673-2.481 2.25-2.481h12c1.577 0 2.25.742 2.25 2.481v7.538ZM17.75 21a.75.75 0 0 1-.75.75H7a.75.75 0 0 1 0-1.5h10a.75.75 0 0 1 .75.75Z"/></svg>

<svg width="24" height="24" viewBox="0 0 24 24" fill="none" xmlns="http://www.w3.org/2000/svg">
<path d="M18 3.25H6C3.582 3.25 2.25 4.66396 2.25 7.23096V14.769C2.25 17.336 3.582 18.75 6 18.75H18C20.418 18.75 21.75 17.336 21.75 14.769V7.23096C21.75 4.66396 20.418 3.25 18 3.25ZM20.25 14.769C20.25 16.508 19.577 17.25 18 17.25H6C4.423 17.25 3.75 16.508 3.75 14.769V7.23096C3.75 5.49196 4.423 4.75 6 4.75H18C19.577 4.75 20.25 5.49196 20.25 7.23096V14.769ZM17.75 21C17.75 21.414 17.414 21.75 17 21.75H7C6.586 21.75 6.25 21.414 6.25 21C6.25 20.586 6.586 20.25 7 20.25H17C17.414 20.25 17.75 20.586 17.75 21Z" fill="currentColor"/>
</svg>
